azure-patterns/svg-convert-square-circle.svg

<svg xmlns="http://www.w3.org/2000/svg" viewBox="0 0 49 48">
                                
                            
    <path d="M41.6799 12.7994C38.1792 12.7994 35.3433 9.96354 35.3433 6.46283C35.3433 2.96213 38.1792 0.126221 41.6799 0.126221C45.1806 0.126221 48.0165 2.96213 48.0165 6.46283C48.0249 9.96354 45.189 12.7994 41.6799 12.7994Z" fill="#50E6FF"></path>
    <path d="M41.6799 30.3871C38.1792 30.3871 35.3433 27.5512 35.3433 24.0505C35.3433 20.5498 38.1792 17.7138 41.6799 17.7138C45.1806 17.7138 48.0165 20.5498 48.0165 24.0505C48.0249 27.5427 45.189 30.3871 41.6799 30.3871Z" fill="#50E6FF"></path>
    <path d="M12.6143 17.7138H0V30.3282H12.6143V17.7138Z" fill="#0078D4"></path>
    <path d="M12.6143 0H0V12.6143H12.6143V0Z" fill="#0078D4"></path>
    <path d="M12.6143 35.3857H0V48H12.6143V35.3857Z" fill="#0078D4"></path>
    <path d="M41.6799 47.9664C38.1792 47.9664 35.3433 45.1304 35.3433 41.6297C35.3433 38.129 38.1792 35.2932 41.6799 35.2932C45.1806 35.2932 48.0165 38.129 48.0165 41.6297C48.0249 45.1304 45.189 47.9664 41.6799 47.9664Z" fill="#50E6FF"></path>
    <path d="M31.616 41.8148L26.4828 36.6816V39.2482H19.0269V44.373H26.4828V46.9397L31.616 41.8148Z" fill="#0078D4"></path>
    <path d="M31.616 24.143L26.4828 19.0098V21.5764H19.0269V26.7012H26.4828V29.2679L31.616 24.143Z" fill="#0078D4"></path>
    <path d="M31.616 6.41235L26.4828 1.27911V3.84573H19.0269V8.97897H26.4828V11.5456L31.616 6.41235Z" fill="#0078D4"></path>
</svg>

<svg xmlns="http://www.w3.org/2000/svg" viewBox="0 0 49 48"><path d="M41.68 12.8a6.335 6.335 0 0 1-6.337-6.337c0-3.5 2.836-6.337 6.337-6.337 3.5 0 6.337 2.836 6.337 6.337.008 3.5-2.828 6.336-6.337 6.336zM41.68 30.387a6.335 6.335 0 0 1-6.337-6.337c0-3.5 2.836-6.336 6.337-6.336 3.5 0 6.337 2.836 6.337 6.337.008 3.492-2.828 6.336-6.337 6.336z" fill="#50E6FF"/><path d="M12.614 17.714H0v12.614h12.614V17.714zM12.614 0H0v12.614h12.614V0zM12.614 35.386H0V48h12.614V35.386z" fill="#0078D4"/><path d="M41.68 47.966a6.335 6.335 0 0 1-6.337-6.336c0-3.501 2.836-6.337 6.337-6.337 3.5 0 6.337 2.836 6.337 6.337.008 3.5-2.828 6.336-6.337 6.336z" fill="#50E6FF"/><path d="M31.616 41.815l-5.133-5.133v2.566h-7.456v5.125h7.456v2.567l5.133-5.125zM31.616 24.143l-5.133-5.133v2.566h-7.456v5.125h7.456v2.567l5.133-5.125zM31.616 6.412L26.483 1.28v2.567h-7.456v5.133h7.456v2.567l5.133-5.134z" fill="#0078D4"/></svg>
